icons/pause.svg

<svg xmlns="http://www.w3.org/2000/svg" width="24" height="24" viewBox="0 0 24 24">
    <path fill="#3A3A47" fill-rule="evenodd" d="M9 4c.667 0 1 .333 1 1v14c0 .667-.333 1-1 1s-1-.333-1-1V5c0-.667.333-1 1-1zm6.004 0c.664 0 .996.333.996 1v14c0 .667-.333 1-1 1s-1-.333-1-1V5c.005-.667.34-1 1.004-1z"/>
</svg>

<svg width="24" height="24" viewBox="0 0 24 24" fill="none" xmlns="http://www.w3.org/2000/svg">
<path d="M8 19V5C8 4.333 8.333 4 9 4C9.667 4 10 4.333 10 5V19C10 19.667 9.667 20 9 20C8.333 20 8 19.667 8 19ZM14 19V5C14.005 4.333 14.34 4 15.004 4C15.668 4 16 4.333 16 5V19C16 19.667 15.667 20 15 20C14.333 20 14 19.667 14 19Z" fill="#3A3A47"/>
</svg>
